modules/hawcons-stroke/icons/icon-85-document-file-ots.svg

<?xml version="1.0" encoding="UTF-8" standalone="no"?>
<svg width="32px" height="32px" viewBox="0 0 32 32" version="1.1" xmlns="http://www.w3.org/2000/svg" xmlns:xlink="http://www.w3.org/1999/xlink" xmlns:sketch="http://www.bohemiancoding.com/sketch/ns">
    <!-- Generator: Sketch 3.0.3 (7891) - http://www.bohemiancoding.com/sketch -->
    <title>icon 85 document file ots</title>
    <desc>Created with Sketch.</desc>
    <defs></defs>
    <g id="Page-1" stroke="none" stroke-width="1" fill="none" fill-rule="evenodd" sketch:type="MSPage">
        <g id="icon-85-document-file-ots" sketch:type="MSArtboardGroup" fill="#929292">
            <path d="M21,13 L21,10 L21,10 L15,3 L4.00276013,3 C2.89666625,3 2,3.89833832 2,5.00732994 L2,27.9926701 C2,29.1012878 2.89092539,30 3.99742191,30 L19.0025781,30 C20.1057238,30 21,29.1017876 21,28.0092049 L21,26 L28.9931517,26 C30.6537881,26 32,24.6577357 32,23.0012144 L32,15.9987856 C32,14.3426021 30.6640085,13 28.9931517,13 L21,13 L21,13 L21,13 Z M20,26 L20,28.0066023 C20,28.5550537 19.5523026,29 19.0000398,29 L3.9999602,29 C3.45470893,29 3,28.5543187 3,28.004543 L3,4.99545703 C3,4.45526288 3.44573523,4 3.9955775,4 L14,4 L14,8.99408095 C14,10.1134452 14.8944962,11 15.9979131,11 L20,11 L20,13 L12.0068483,13 C10.3462119,13 9,14.3422643 9,15.9987856 L9,23.0012144 C9,24.6573979 10.3359915,26 12.0068483,26 L20,26 L20,26 L20,26 Z M15,4.5 L15,8.99121523 C15,9.54835167 15.4506511,10 15.9967388,10 L19.6999512,10 L15,4.5 L15,4.5 Z M11.9945615,14 C10.8929956,14 10,14.9001762 10,15.992017 L10,23.007983 C10,24.1081436 10.9023438,25 11.9945615,25 L29.0054385,25 C30.1070044,25 31,24.0998238 31,23.007983 L31,15.992017 C31,14.8918564 30.0976562,14 29.0054385,14 L11.9945615,14 L11.9945615,14 Z M14.0048815,16 C12.897616,16 12,16.8865548 12,18.0059191 L12,20.9940809 C12,22.1019194 12.8938998,23 14.0048815,23 L14.9951185,23 C16.102384,23 17,22.1134452 17,20.9940809 L17,18.0059191 C17,16.8980806 16.1061002,16 14.9951185,16 L14.0048815,16 L14.0048815,16 Z M13.9989566,17 C13.4472481,17 13,17.4437166 13,17.9998075 L13,21.0001925 C13,21.5523709 13.4426603,22 13.9989566,22 L15.0010434,22 C15.5527519,22 16,21.5562834 16,21.0001925 L16,17.9998075 C16,17.4476291 15.5573397,17 15.0010434,17 L13.9989566,17 L13.9989566,17 Z M20,17 L20,23 L21,23 L21,17 L23,17 L23,16 L18,16 L18,17 L20,17 L20,17 Z M26.0048815,16 C24.897616,16 24,16.8877296 24,18 C24,19.1045695 24.8877296,20 26,20 L26.9906311,20 C27.5480902,20 28,20.4438648 28,21 C28,21.5522847 27.5573397,22 27.0010434,22 L25.9989566,22 C25.4472481,22 25,21.543716 25,21.0044713 L25,20.9931641 L24,20.9931641 L24,20.998921 C24,22.1040864 24.8938998,23 26.0048815,23 L26.9951185,23 C28.102384,23 29,22.1122704 29,21 C29,19.8954305 28.1122704,19 27,19 L26.0093689,19 C25.4519098,19 25,18.5561352 25,18 C25,17.4477153 25.4426603,17 25.9989566,17 L27.0010434,17 C27.5527519,17 28,17.453186 28,18 L29,18 C29,16.8954305 28.1061002,16 26.9951185,16 L26.0048815,16 L26.0048815,16 Z" id="document-file-ots" sketch:type="MSShapeGroup"></path>
        </g>
    </g>
</svg>

<svg width="32" height="32" viewBox="0 0 32 32" xmlns="http://www.w3.org/2000/svg"><path d="M21 13v-3l-6-7H4.003A2.005 2.005 0 0 0 2 5.007v22.986A2 2 0 0 0 3.997 30h15.006A1.999 1.999 0 0 0 21 28.01V26h7.993A3.003 3.003 0 0 0 32 23.001V16A2.996 2.996 0 0 0 28.993 13H21zm-1 13v2.007A.997.997 0 0 1 19 29H4c-.545 0-1-.446-1-.995V4.995c0-.54.446-.995.996-.995H14v4.994c0 1.12.894 2.006 1.998 2.006H20v2h-7.993A3.003 3.003 0 0 0 9 15.999V23A2.996 2.996 0 0 0 12.007 26H20zM15 4.5v4.491c0 .557.45 1.009.997 1.009H19.7L15 4.5zM11.995 14C10.893 14 10 14.9 10 15.992v7.016A2 2 0 0 0 11.995 25h17.01C30.107 25 31 24.1 31 23.008v-7.016A2 2 0 0 0 29.005 14h-17.01zm2.01 2A1.998 1.998 0 0 0 12 18.006v2.988c0 1.108.894 2.006 2.005 2.006h.99A1.998 1.998 0 0 0 17 20.994v-2.988A2.003 2.003 0 0 0 14.995 16h-.99zm-.006 1A.997.997 0 0 0 13 18v3c0 .552.443 1 .999 1h1.002A.997.997 0 0 0 16 21v-3c0-.552-.443-1-.999-1h-1.002zM20 17v6h1v-6h2v-1h-5v1h2zm6.005-1A1.998 1.998 0 0 0 24 18c0 1.105.888 2 2 2h.99c.558 0 1.01.444 1.01 1 0 .552-.443 1-.999 1h-1.002c-.552 0-.999-.456-.999-.996v-.01h-1v.005A2 2 0 0 0 26.005 23h.99A1.998 1.998 0 0 0 29 21c0-1.105-.888-2-2-2h-.99c-.558 0-1.01-.444-1.01-1 0-.552.443-1 .999-1h1.002c.552 0 .999.453.999 1h1a2 2 0 0 0-2.005-2h-.99z" fill="#929292" fill-rule="evenodd"/></svg>
